assets/icons/facebook.svg

<svg viewBox="0 0 34.032 34.032" xmlns="http://www.w3.org/2000/svg"><path d="m17.016 2.836a14.18 14.18 0 1 1 -14.18 14.18 14.2 14.2 0 0 1 14.18-14.18zm0-2.836a17.016 17.016 0 1 0 17.016 17.016 17.017 17.017 0 0 0 -17.016-17.016zm-2.836 14.18h-2.836v2.836h2.836v8.508h4.254v-8.508h2.581l.255-2.836h-2.836v-1.18c0-.678.136-.946.791-.946h2.045v-3.546h-3.409c-2.55 0-3.681 1.123-3.681 3.273v2.4z" fill="#3fa7a8"/></svg>

<svg xmlns="http://www.w3.org/2000/svg" viewBox="0 0 34.032 34.032"><defs><style>.a{fill:#3fa7a8;}</style></defs><path class="a" d="M17.016,2.836a14.18,14.18,0,1,1-14.18,14.18A14.2,14.2,0,0,1,17.016,2.836Zm0-2.836A17.016,17.016,0,1,0,34.032,17.016,17.017,17.017,0,0,0,17.016,0ZM14.18,14.18H11.344v2.836H14.18v8.508h4.254V17.016h2.581l.255-2.836H18.434V13c0-.678.136-.946.791-.946H21.27V8.508H17.861c-2.55,0-3.681,1.123-3.681,3.273v2.4Z"/></svg>
